actions/22x22-light/view-calendar-special-occasion.svg

<svg viewBox="0 0 22 22" xmlns="http://www.w3.org/2000/svg"><path d="m4 3c-.5540164 0-1 .4459836-1 1v14c0 .554016.4459836 1 1 1h14c .554016 0 1-.445984 1-1v-14c0-.5540164-.445984-1-1-1zm4.1992188 6.1328125h5.6015622v2.8007815h-5.6015622zm-2.7988282.9335935h1.8652344v1.400391 1.400391h-1.8652344l1.8652344-1.400391zm9.3339844 0h1.865234l-1.865234 1.400391 1.865234 1.400391h-1.865234v-1.400391z" fill="#4d4d4d"/></svg>

<svg xmlns="http://www.w3.org/2000/svg" viewBox="0 0 22 22">
  <defs id="defs3051">
    <style type="text/css" id="current-color-scheme">
      .ColorScheme-Text {
        color:#4d4d4d
      }
      </style>
  </defs>
 <path 
     style="fill:currentColor;fill-opacity:1;stroke:none"      
	 class="ColorScheme-Text"
        d="M 4 3 C 3.4459836 3 3 3.4459836 3 4 L 3 18 C 3 18.554016 3.4459836 19 4 19 L 18 19 C 18.554016 19 19 18.554016 19 18 L 19 4 C 19 3.4459836 18.554016 3 18 3 L 4 3 z M 8.1992188 9.1328125 L 13.800781 9.1328125 L 13.800781 11.933594 L 8.1992188 11.933594 L 8.1992188 9.1328125 z M 5.4003906 10.066406 L 7.265625 10.066406 L 7.265625 11.466797 L 7.265625 12.867188 L 5.4003906 12.867188 L 7.265625 11.466797 L 5.4003906 10.066406 z M 14.734375 10.066406 L 16.599609 10.066406 L 14.734375 11.466797 L 16.599609 12.867188 L 14.734375 12.867188 L 14.734375 11.466797 L 14.734375 10.066406 z "
     />
</svg>
